icons/svg/tag-multiple.svg

<svg width="24" height="24" viewBox="0 0 24 24" fill="none" xmlns="http://www.w3.org/2000/svg">
<path d="M19.1402 10.0146L12.9313 3.80576C12.5563 3.43068 12.0476 3.21997 11.5171 3.21997L6.11542 3.21997C5.01085 3.21997 4.11542 4.1154 4.11542 5.21997L4.11542 10.6217C4.11542 11.1521 4.32613 11.6608 4.7012 12.0359L10.9101 18.2448C12.0816 19.4163 13.9811 19.4163 15.1527 18.2448L19.1402 14.2573C20.3118 13.0857 20.3118 11.1862 19.1402 10.0146Z" stroke="currentColor" stroke-width="1.5" stroke-linecap="round" stroke-linejoin="round"/>
<circle cx="8.56154" cy="7.66687" r="1.13767" transform="rotate(-45 8.56154 7.66687)" fill="currentColor"/>
<path d="M5.23153 14.9256L10.0262 19.7202C11.6859 21.3799 14.3769 21.3799 16.0366 19.7202L18.6099 17.1469L20.7314 15.0254C20.8917 16.1533 20.5381 17.3401 19.6705 18.2076L17.0973 20.7809C14.8517 23.0264 11.211 23.0264 8.96553 20.7809L4.17087 15.9862C3.65515 15.4705 3.36542 14.771 3.36542 14.0417V13.0594L5.23153 14.9256Z" fill="currentColor"/>
</svg>

<svg xmlns="http://www.w3.org/2000/svg" width="24" height="24" fill="none" viewBox="0 0 24 24"><path stroke="currentColor" stroke-linecap="round" stroke-linejoin="round" stroke-width="1.5" d="m19.14 10.015-6.209-6.21a2 2 0 0 0-1.414-.585H6.115a2 2 0 0 0-2 2v5.402a2 2 0 0 0 .586 1.414l6.21 6.209a3 3 0 0 0 4.242 0l3.987-3.988a3 3 0 0 0 0-4.242"/><circle cx="8.562" cy="7.667" r="1.138" fill="currentColor" transform="rotate(-45 8.562 7.667)"/><path fill="currentColor" d="m5.232 14.926 4.794 4.794a4.25 4.25 0 0 0 6.01 0l2.574-2.573 2.121-2.122a3.74 3.74 0 0 1-1.06 3.183l-2.574 2.573a5.75 5.75 0 0 1-8.131 0L4.17 15.986a2.75 2.75 0 0 1-.806-1.944v-.983z"/></svg>
